src/assets/icons/weeks,simple,20.svg

<svg width="48" height="48" viewBox="0 0 48 48" fill="none" xmlns="http://www.w3.org/2000/svg">
<rect opacity="0.2" x="5" y="5" width="38" height="38" rx="4" fill="black"/>
<path d="M5 13C5 9.22876 5 7.34315 6.17157 6.17157C7.34315 5 9.22876 5 13 5H35C38.7712 5 40.6569 5 41.8284 6.17157C43 7.34315 43 9.22876 43 13V15H5V13Z" fill="black"/>
<path d="M9.59446 38H22.0376V34.983H14.7081V34.8636L17.2564 32.3665C20.8445 29.0938 21.8075 27.4574 21.8075 25.4716C21.8075 22.446 19.3359 20.3068 15.5945 20.3068C11.9297 20.3068 9.41548 22.4972 9.42401 25.9233H12.9268C12.9183 24.2528 13.9751 23.2301 15.5689 23.2301C17.103 23.2301 18.245 24.1847 18.245 25.7188C18.245 27.108 17.3928 28.0625 15.8075 29.5881L9.59446 35.3409V38ZM31.5554 38.3835C35.9446 38.3835 38.5952 35.0426 38.6037 29.2898C38.6122 23.5795 35.9276 20.3068 31.5554 20.3068C27.1747 20.3068 24.5156 23.571 24.5071 29.2898C24.4901 35.0256 27.1577 38.375 31.5554 38.3835ZM31.5554 35.3239C29.5526 35.3239 28.2571 33.3125 28.2656 29.2898C28.2741 25.3267 29.5611 23.3324 31.5554 23.3324C33.5412 23.3324 34.8366 25.3267 34.8366 29.2898C34.8452 33.3125 33.5497 35.3239 31.5554 35.3239Z" fill="black"/>
</svg>

<svg xmlns="http://www.w3.org/2000/svg" width="48" height="48" fill="none" viewBox="0 0 48 48">
  <rect width="38" height="38" x="5" y="5" fill="#000" opacity=".2" rx="4"/>
  <path fill="#000" d="M5 13c0-3.771 0-5.657 1.172-6.828C7.343 5 9.229 5 13 5h22c3.771 0 5.657 0 6.828 1.172C43 7.343 43 9.229 43 13v2H5v-2zM9.594 38h12.444v-3.017h-7.33v-.12l2.548-2.496c3.588-3.273 4.552-4.91 4.552-6.895 0-3.026-2.472-5.165-6.213-5.165-3.665 0-6.18 2.19-6.171 5.616h3.503c-.009-1.67 1.048-2.693 2.642-2.693 1.534 0 2.676.955 2.676 2.489 0 1.389-.852 2.343-2.438 3.87L9.595 35.34V38zm21.961.383c4.39 0 7.04-3.34 7.049-9.093.008-5.71-2.676-8.983-7.049-8.983-4.38 0-7.04 3.264-7.048 8.983-.017 5.736 2.65 9.085 7.048 9.093zm0-3.06c-2.002 0-3.298-2.01-3.29-6.033.01-3.963 1.296-5.958 3.29-5.958 1.986 0 3.282 1.995 3.282 5.958.008 4.023-1.287 6.034-3.282 6.034z"/>
</svg>
